X:1
T:Title
%%score 1 2
L:1/8
Q:1/4=80
M:4/4
K:G
V:1 treble nm="Violin, SOPRANO ALTO"
V:2 bass nm="Violin, TENOR BASS"
V:1
 [DG][DG][GB][GB] [DG]2 [B,D]2 | [DB][DB][Dc][DB] [DA]4 | [DG][DG][GB][GB] [DG]2 [B,D]2 | %3
w: 1.~Come,~ ye~ lit tle~ chil dren,~|come,~ oh,~ come~ to day,~|Come~ and~ learn~ of~ Je sus,~|
 [DB][DB][GB][FA] [DG]4 | [DG][DG][GB][GB] [Gc]2 [GB]2 | [DG][DA][GB][Gd] [Fd]4 | %6
w: and~ the~ Bi ble~ way;~|He~ will~ lead~ us~ up ward~|to~ the~ land~ of~ light,~|
 [Gd][Ge][Gd][Ge] [Gd]2 [DB]2 | [Fd][Ac][GB][FA] [DG]2 [GB]>[Gc] | [GB]4- [GB]>[E_B] [G=B]>[Gc] | %9
w: Where~ there~ is~ no~ dark ness,~|for~ the~ day~ is~ bright.~ * *||
 [GB]4 [DG]2 [DG][GB] | [Ac][Ac][GB][GB] [FA]4 | [GB][Ac][GB][FA] [DG]4 |] %12
w: |||
V:2
 [G,B,][G,B,][G,D][G,D] [G,B,]2 G,2 | G,G,[F,A,]G, [D,F,]4 | [G,B,][G,B,][G,D][G,D] [G,B,]2 G,2 | %3
 G,[G,B,][D,D][D,C] [G,,G,B,]4 | [G,B,][G,B,][G,D][G,D] [G,E]2 [G,D]2 | %5
 [G,B,][G,C][G,D][G,B,] [D,A,]4 | [G,B,][G,C][G,B,][G,C] [G,B,]2 G,2 | %7
 [D,A,][D,D][D,D][D,C] [G,,G,B,]2 z2 | z2 [G,D]>[G,D] [G,D]2 z2 | %9
 z [G,D][G,D][G,D] [G,B,]2 [G,B,][G,D] | [F,D][F,D][G,D][G,D] [D,D]4 | %11
 [D,D][D,E][D,D][D,C] [G,,G,B,]4 |] %12

